<?xml version="1.0" encoding="UTF-8"?>
<map version="1.10" tiledversion="1.11.2" orientation="orthogonal" renderorder="right-down" width="50" height="50" tilewidth="16" tileheight="16" infinite="0" nextlayerid="10" nextobjectid="47">
 <tileset firstgid="1" source="nature.tsx"/>
 <layer id="1" name="background" width="50" height="50">
  <data encoding="csv">
1,2,3,4,5,6,7,8,1,2,3,4,5,6,7,8,1,2,3,4,5,6,7,8,1,2,3,4,5,6,7,8,1,2,3,4,5,6,7,8,1,2,3,4,5,6,7,8,1,2,
145,146,147,148,149,150,151,152,145,146,147,148,149,150,151,152,145,146,147,148,149,150,151,152,145,146,147,148,149,150,151,152,145,146,147,148,149,150,151,152,145,146,147,148,149,150,151,152,145,146,
289,290,291,292,293,294,295,296,289,290,291,292,293,294,295,296,289,290,291,292,293,294,295,296,289,290,291,292,293,294,295,296,289,290,291,292,293,294,295,296,289,290,291,292,293,294,295,296,289,290,
433,434,435,436,437,438,439,440,433,434,435,436,437,438,439,440,433,434,435,436,437,438,439,440,433,434,435,436,437,438,439,440,433,434,435,436,437,438,439,440,433,434,435,436,437,438,439,440,433,434,
577,578,579,580,581,582,583,584,577,578,579,580,581,582,583,584,577,578,579,580,581,582,583,584,577,578,579,580,581,582,583,584,577,578,579,580,581,582,583,584,577,578,579,580,581,582,583,584,577,578,
721,722,723,724,725,726,727,728,721,722,723,724,725,726,727,728,721,722,723,724,725,726,727,728,721,722,723,724,725,726,727,728,721,722,723,724,725,726,727,728,721,722,723,724,725,726,727,728,721,722,
865,866,867,868,869,870,871,872,865,866,867,868,869,870,871,872,865,866,867,868,869,870,871,872,865,866,867,868,869,870,871,872,865,866,867,868,869,870,871,872,865,866,867,868,869,870,871,872,865,866,
1009,1010,1011,1012,1013,1014,1015,1016,1009,1010,1011,1012,1013,1014,1015,1016,1009,1010,1011,1012,1013,1014,1015,1016,1009,1010,1011,1012,1013,1014,1015,1016,1009,1010,1011,1012,1013,1014,1015,1016,1009,1010,1011,1012,1013,1014,1015,1016,1009,1010,
1,2,3,4,5,6,7,8,1,2,3,4,5,6,7,8,1,2,3,4,5,6,7,8,1,2,3,4,5,6,7,8,1,2,3,4,5,6,7,8,1,2,3,4,5,6,7,8,1,2,
145,146,147,148,149,150,151,152,145,146,147,148,149,150,151,152,145,146,147,148,149,150,151,152,145,146,147,148,149,150,151,152,145,146,147,148,149,150,151,152,145,146,147,148,149,150,151,152,145,146,
289,290,291,292,293,294,295,296,289,290,291,292,293,294,295,296,289,290,291,292,293,294,295,296,289,290,291,292,293,294,295,296,289,290,291,292,293,294,295,296,289,290,291,292,293,294,295,296,289,290,
433,434,435,436,437,438,439,440,433,434,435,436,437,438,439,440,433,434,435,436,437,438,439,440,433,434,435,436,437,438,439,440,433,434,435,436,437,438,439,440,433,434,435,436,437,438,439,440,433,434,
577,578,579,580,581,582,583,584,577,578,579,580,581,582,583,584,577,578,579,580,581,582,583,584,577,578,579,580,581,582,583,584,577,578,579,580,581,582,583,584,577,578,579,580,581,582,583,584,577,578,
721,722,723,724,725,726,727,728,721,722,723,724,725,726,727,728,721,722,723,724,725,726,727,728,721,722,723,724,725,726,727,728,721,722,723,724,725,726,727,728,721,722,723,724,725,726,727,728,721,722,
865,866,867,868,869,870,871,872,865,866,867,868,869,870,871,872,865,866,867,868,869,870,871,872,865,866,867,868,869,870,871,872,865,866,867,868,869,870,871,872,865,866,867,868,869,870,871,872,865,866,
1009,1010,1011,1012,1013,1014,1015,1016,1009,1010,1011,1012,1013,1014,1015,1016,1009,1010,1011,1012,1013,1014,1015,1016,1009,1010,1011,1012,1013,1014,1015,1016,1009,1010,1011,1012,1013,1014,1015,1016,1009,1010,1011,1012,1013,1014,1015,1016,1009,1010,
1,2,3,4,5,6,7,8,1,2,3,4,5,6,7,8,1,2,3,4,5,6,7,8,1,2,3,4,5,6,7,8,1,2,3,4,5,6,7,8,1,2,3,4,5,6,7,8,1,2,
145,146,147,148,149,150,151,152,145,146,147,148,149,150,151,152,145,146,147,148,149,150,151,152,145,146,147,148,149,150,151,152,145,146,147,148,149,150,151,152,145,146,147,148,149,150,151,152,145,146,
289,290,291,292,293,294,295,296,289,290,291,292,293,294,295,296,289,290,291,292,293,294,295,296,289,290,291,292,293,294,295,296,289,290,291,292,293,294,295,296,289,290,291,292,293,294,295,296,289,290,
433,434,435,436,437,438,439,440,433,434,435,436,437,438,439,440,433,434,435,436,437,438,439,440,433,434,435,436,437,438,439,440,433,434,435,436,437,438,439,440,433,434,435,436,437,438,439,440,433,434,
577,578,579,580,581,582,583,584,577,578,579,580,581,582,583,584,577,578,579,580,581,582,583,584,577,578,579,580,581,582,583,584,577,578,579,580,581,582,583,584,577,578,579,580,581,582,583,584,577,578,
721,722,723,724,725,726,727,728,721,722,723,724,725,726,727,728,721,722,723,724,725,726,727,728,721,722,723,724,725,726,727,728,721,722,723,724,725,726,727,728,721,722,723,724,725,726,727,728,721,722,
865,866,867,868,869,870,871,872,865,866,867,868,869,870,871,872,865,866,867,868,869,870,871,872,865,866,867,868,869,870,871,872,865,866,867,868,869,870,871,872,865,866,867,868,869,870,871,872,865,866,
1009,1010,1011,1012,1013,1014,1015,1016,1009,1010,1011,1012,1013,1014,1015,1016,1009,1010,1011,1012,1013,1014,1015,1016,1009,1010,1011,1012,1013,1014,1015,1016,1009,1010,1011,1012,1013,1014,1015,1016,1009,1010,1011,1012,1013,1014,1015,1016,1009,1010,
1,2,3,4,5,6,7,8,1,2,3,4,5,6,7,8,1,2,3,4,5,6,7,8,1,2,3,4,5,6,7,8,1,2,3,4,5,6,7,8,1,2,3,4,5,6,7,8,1,2,
145,146,147,148,149,150,151,152,145,146,147,148,149,150,151,152,145,146,147,148,149,150,151,152,145,146,147,148,149,150,151,152,145,146,147,148,149,150,151,152,145,146,147,148,149,150,151,152,145,146,
289,290,291,292,293,294,295,296,289,290,291,292,293,294,295,296,289,290,291,292,293,294,295,296,289,290,291,292,293,294,295,296,289,290,291,292,293,294,295,296,289,290,291,292,293,294,295,296,289,290,
433,434,435,436,437,438,439,440,433,434,435,436,437,438,439,440,433,434,435,436,437,438,439,440,433,434,435,436,437,438,439,440,433,434,435,436,437,438,439,440,433,434,435,436,437,438,439,440,433,434,
577,578,579,580,581,582,583,584,577,578,579,580,581,582,583,584,577,578,579,580,581,582,583,584,577,578,579,580,581,582,583,584,577,578,579,580,581,582,583,584,577,578,579,580,581,582,583,584,577,578,
721,722,723,724,725,726,727,728,721,722,723,724,725,726,727,728,721,722,723,724,725,726,727,728,721,722,723,724,725,726,727,728,721,722,723,724,725,726,727,728,721,722,723,724,725,726,727,728,721,722,
865,866,867,868,869,870,871,872,865,866,867,868,869,870,871,872,865,866,867,868,869,870,871,872,865,866,867,868,869,870,871,872,865,866,867,868,869,870,871,872,865,866,867,868,869,870,871,872,865,866,
1009,1010,1011,1012,1013,1014,1015,1016,1009,1010,1011,1012,1013,1014,1015,1016,1009,1010,1011,1012,1013,1014,1015,1016,1009,1010,1011,1012,1013,1014,1015,1016,1009,1010,1011,1012,1013,1014,1015,1016,1009,1010,1011,1012,1013,1014,1015,1016,1009,1010,
1,2,3,4,5,6,7,8,1,2,3,4,5,6,7,8,1,2,3,4,5,6,7,8,1,2,3,4,5,6,7,8,1,2,3,4,5,6,7,8,1,2,3,4,5,6,7,8,1,2,
145,146,147,148,149,150,151,152,145,146,147,148,149,150,151,152,145,146,147,148,149,150,151,152,145,146,147,148,149,150,151,152,145,146,147,148,149,150,151,152,145,146,147,148,149,150,151,152,145,146,
289,290,291,292,293,294,295,296,289,290,291,292,293,294,295,296,289,290,291,292,293,294,295,296,289,290,291,292,293,294,295,296,289,290,291,292,293,294,295,296,289,290,291,292,293,294,295,296,289,290,
433,434,435,436,437,438,439,440,433,434,435,436,437,438,439,440,433,434,435,436,437,438,439,440,433,434,435,436,437,438,439,440,433,434,435,436,437,438,439,440,433,434,435,436,437,438,439,440,433,434,
577,578,579,580,581,582,583,584,577,578,579,580,581,582,583,584,577,578,579,580,581,582,583,584,577,578,579,580,581,582,583,584,577,578,579,580,581,582,583,584,577,578,579,580,581,582,583,584,577,578,
721,722,723,724,725,726,727,728,721,722,723,724,725,726,727,728,721,722,723,724,725,726,727,728,721,722,723,724,725,726,727,728,721,722,723,724,725,726,727,728,721,722,723,724,725,726,727,728,721,722,
865,866,867,868,869,870,871,872,865,866,867,868,869,870,871,872,865,866,867,868,869,870,871,872,865,866,867,868,869,870,871,872,865,866,867,868,869,870,871,872,865,866,867,868,869,870,871,872,865,866,
1009,1010,1011,1012,1013,1014,1015,1016,1009,1010,1011,1012,1013,1014,1015,1016,1009,1010,1011,1012,1013,1014,1015,1016,1009,1010,1011,1012,1013,1014,1015,1016,1009,1010,1011,1012,1013,1014,1015,1016,1009,1010,1011,1012,1013,1014,1015,1016,1009,1010,
1,2,3,4,5,6,7,8,1,2,3,4,5,6,7,8,1,2,3,4,5,6,7,8,1,2,3,4,5,6,7,8,1,2,3,4,5,6,7,8,1,2,3,4,5,6,7,8,1,2,
145,146,147,148,149,150,151,152,145,146,147,148,149,150,151,152,145,146,147,148,149,150,151,152,145,146,147,148,149,150,151,152,145,146,147,148,149,150,151,152,145,146,147,148,149,150,151,152,145,146,
289,290,291,292,293,294,295,296,289,290,291,292,293,294,295,296,289,290,291,292,293,294,295,296,289,290,291,292,293,294,295,296,289,290,291,292,293,294,295,296,289,290,291,292,293,294,295,296,289,290,
433,434,435,436,437,438,439,440,433,434,435,436,437,438,439,440,433,434,435,436,437,438,439,440,433,434,435,436,437,438,439,440,433,434,435,436,437,438,439,440,433,434,435,436,437,438,439,440,433,434,
577,578,579,580,581,582,583,584,577,578,579,580,581,582,583,584,577,578,579,580,581,582,583,584,577,578,579,580,581,582,583,584,577,578,579,580,581,582,583,584,577,578,579,580,581,582,583,584,577,578,
721,722,723,724,725,726,727,728,721,722,723,724,725,726,727,728,721,722,723,724,725,726,727,728,721,722,723,724,725,726,727,728,721,722,723,724,725,726,727,728,721,722,723,724,725,726,727,728,721,722,
865,866,867,868,869,870,871,872,865,866,867,868,869,870,871,872,865,866,867,868,869,870,871,872,865,866,867,868,869,870,871,872,865,866,867,868,869,870,871,872,865,866,867,868,869,870,871,872,865,866,
1009,1010,1011,1012,1013,1014,1015,1016,1009,1010,1011,1012,1013,1014,1015,1016,1009,1010,1011,1012,1013,1014,1015,1016,1009,1010,1011,1012,1013,1014,1015,1016,1009,1010,1011,1012,1013,1014,1015,1016,1009,1010,1011,1012,1013,1014,1015,1016,1009,1010,
1,2,3,4,5,6,7,8,1,2,3,4,5,6,7,8,1,2,3,4,5,6,7,8,1,2,3,4,5,6,7,8,1,2,3,4,5,6,7,8,1,2,3,4,5,6,7,8,1,2,
145,146,147,148,149,150,151,152,145,146,147,148,149,150,151,152,145,146,147,148,149,150,151,152,145,146,147,148,149,150,151,152,145,146,147,148,149,150,151,152,145,146,147,148,149,150,151,152,145,146
</data>
 </layer>
 <layer id="3" name="water" width="50" height="50">
  <data encoding="csv">
0,0,0,0,0,0,0,0,0,0,0,0,0,0,0,0,0,0,0,0,0,0,0,75,76,77,78,0,0,0,0,0,0,0,0,0,0,0,0,0,0,0,0,0,0,0,0,0,0,0,
0,0,0,0,0,0,0,0,0,0,0,0,0,0,0,0,0,0,0,0,0,0,0,219,220,221,222,0,0,0,0,0,0,0,0,0,0,0,0,0,0,0,0,0,0,0,0,0,0,0,
0,0,0,0,0,0,0,0,0,0,0,0,0,0,0,0,0,0,0,0,0,0,0,363,364,365,366,0,0,0,0,0,0,0,0,0,0,0,0,0,0,0,0,0,0,0,0,0,0,0,
0,0,0,0,0,0,0,0,0,0,0,0,0,0,0,0,0,0,0,0,0,0,0,507,508,509,510,0,0,0,0,0,0,0,0,0,0,0,0,0,0,0,0,0,0,0,0,0,0,0,
0,0,0,0,0,0,0,0,0,0,0,0,0,0,0,0,0,0,0,0,0,0,0,651,652,653,654,0,0,0,0,0,0,0,0,0,0,0,0,0,0,0,0,0,0,0,0,0,0,0,
0,0,0,0,0,0,0,0,0,0,0,0,0,0,0,0,0,0,0,0,0,0,0,795,796,797,798,0,0,0,0,0,0,0,0,0,0,0,0,0,0,0,0,0,0,0,0,0,0,0,
0,0,0,0,0,0,0,0,0,0,0,0,0,0,0,0,0,0,0,0,0,0,0,939,940,941,942,0,0,0,0,0,0,0,0,0,0,0,0,0,0,0,0,0,0,0,0,0,0,0,
0,0,0,0,0,0,0,0,0,0,0,0,0,0,0,0,0,0,0,0,0,0,0,1083,1084,1085,1086,0,0,0,0,0,0,0,0,0,0,0,0,0,0,0,0,0,0,0,0,0,0,0,
0,0,0,0,0,0,0,0,0,0,0,0,0,0,0,0,0,0,0,0,0,0,0,75,76,77,78,0,0,0,0,0,0,0,0,0,0,0,0,0,0,0,0,0,0,0,0,0,0,0,
0,0,0,0,0,0,0,0,0,0,0,0,0,0,0,0,0,0,0,0,0,0,0,219,220,221,222,0,0,0,0,0,0,0,0,0,0,0,0,0,0,0,0,0,0,0,0,0,0,0,
0,0,0,0,0,0,0,0,0,0,0,0,0,0,0,0,0,0,0,0,0,0,0,363,364,365,366,0,0,0,0,0,0,0,0,0,0,0,0,0,0,0,0,0,0,0,0,0,0,0,
0,0,0,0,0,0,0,0,0,0,0,0,0,0,0,0,0,0,0,0,0,0,0,507,508,509,510,0,0,0,0,0,0,0,0,0,0,0,0,0,0,0,0,0,0,0,0,0,0,0,
0,0,0,0,0,0,0,0,0,0,0,0,0,0,0,0,0,0,0,0,0,0,0,651,652,653,654,0,0,0,0,0,0,0,0,0,0,0,0,0,0,0,0,0,0,0,0,0,0,0,
0,0,0,0,0,0,0,0,0,0,0,0,0,0,0,0,0,0,0,0,0,0,0,795,796,797,798,0,0,0,0,0,0,0,0,0,0,0,0,0,0,0,0,0,0,0,0,0,0,0,
0,0,0,0,0,0,0,0,0,0,0,0,0,0,0,0,0,0,0,0,0,0,0,939,940,941,942,0,0,0,0,0,0,0,0,0,0,0,0,0,0,0,0,0,0,0,0,0,0,0,
0,0,0,0,0,0,0,0,0,0,0,0,0,0,0,0,0,0,0,0,0,0,0,1083,1084,1085,1086,0,0,0,0,0,0,0,0,0,0,0,0,0,0,0,0,0,0,0,0,0,0,0,
0,0,0,0,0,0,0,0,0,0,0,0,0,0,0,0,0,0,0,0,0,0,0,1259,1260,1261,1262,79,80,81,82,83,84,85,86,87,1240,1241,1242,1243,1244,1245,1246,1247,0,0,0,0,0,0,
0,0,0,0,0,0,0,0,0,0,0,0,0,0,0,0,0,0,0,0,0,0,0,1403,1404,1405,1406,223,224,225,226,227,228,229,230,231,232,1385,1386,1387,1388,1389,1390,1391,0,0,0,0,0,0,
0,0,0,0,0,0,0,0,0,0,0,0,0,0,0,0,0,0,0,0,0,0,0,1547,1548,1549,1550,1551,1552,369,370,371,372,373,374,375,376,1529,1530,1531,1532,1533,1534,1535,0,0,0,0,0,0,
0,0,0,0,0,0,0,0,0,0,0,0,0,0,0,0,0,0,0,0,0,0,0,1691,1692,1693,1694,1695,1696,513,514,515,516,517,518,519,520,1673,1674,1675,1676,1677,1678,1679,0,0,0,0,0,0,
0,0,0,0,0,0,0,0,0,0,0,0,0,0,0,0,0,0,0,0,0,0,0,1835,1836,1837,1838,1839,1840,657,658,659,660,661,662,663,664,1817,1818,1819,1820,1821,1822,1823,0,0,0,0,0,0,
0,0,0,0,0,0,0,0,0,0,0,0,0,0,0,0,0,0,0,0,0,0,0,1979,1980,1981,1982,1983,1984,801,802,803,804,805,806,807,808,1961,1962,1963,1964,1965,1966,1967,0,0,0,0,0,0,
0,0,0,0,0,0,0,0,0,0,0,0,0,0,0,0,0,0,0,0,0,961,962,963,964,965,966,2127,2128,945,946,947,948,949,950,951,952,2105,2106,2107,2108,2109,2110,2111,0,0,0,0,0,0,
0,0,0,0,0,0,0,0,0,0,0,0,0,0,0,0,0,0,0,0,0,1105,1106,1107,1108,1109,1110,1087,1088,1089,1090,1091,1092,1093,1094,1095,1096,1097,1098,0,0,0,0,0,0,0,0,0,0,0,
0,0,0,0,0,0,0,0,0,0,0,0,0,2393,2394,2395,2396,2397,2398,2399,2400,2401,1250,1251,1252,1253,1254,0,0,0,0,0,0,0,0,0,0,0,0,0,0,0,0,0,0,0,0,0,0,0,
0,0,0,0,0,0,0,0,0,0,0,0,0,2537,2538,2539,2540,2541,2542,2543,2544,2545,1394,1395,1396,1397,1398,0,0,0,0,0,0,0,0,0,0,0,0,0,0,0,0,0,0,0,0,0,0,0,
0,0,0,0,0,0,0,0,0,0,0,0,0,2681,2682,2683,2684,2685,2686,2687,2688,369,1538,1539,1540,1541,1542,0,0,0,0,0,0,0,0,0,0,0,0,0,0,0,0,0,0,0,0,0,0,0,
0,0,0,0,0,0,0,0,0,0,0,0,0,2825,2826,2827,2828,2829,2830,2831,2832,513,1682,1683,1684,1685,1686,0,0,0,0,0,0,0,0,0,0,0,0,0,0,0,0,0,0,0,0,0,0,0,
0,0,0,0,0,0,0,0,0,0,0,0,0,2969,2970,2971,2972,2973,2974,2975,2976,657,1826,1827,1828,1829,1830,0,0,0,0,0,0,0,0,0,0,0,0,0,0,0,0,0,0,0,0,0,0,0,
0,0,0,0,0,0,0,0,0,0,0,0,0,3113,3114,3115,3116,3117,3118,3119,3120,801,1970,1971,1972,1973,1974,0,0,0,0,0,0,0,0,0,0,0,0,0,0,0,0,0,0,0,0,0,0,0,
0,0,0,0,0,0,0,0,0,0,0,0,0,3257,3258,3259,3260,3261,3262,3263,3264,3265,2114,2115,2116,2117,2118,0,0,0,0,0,0,0,0,0,0,0,0,0,0,0,0,0,0,0,0,0,0,0,
0,0,0,0,0,0,0,0,0,0,0,0,0,0,0,0,0,0,0,0,0,2257,2258,2259,2260,2261,2262,0,0,0,0,0,0,0,0,0,0,0,0,0,0,0,0,0,0,0,0,0,0,0,
0,0,0,0,0,0,0,0,0,0,0,0,0,0,0,0,0,0,0,0,0,2401,2402,2403,2404,2405,2406,0,0,0,0,0,0,0,0,0,0,0,0,0,0,0,0,0,0,0,0,0,0,0,
0,0,0,0,0,0,0,0,0,0,0,0,0,0,0,0,0,0,0,0,0,2545,2546,2547,2548,2549,2550,2551,2552,0,0,0,0,0,0,0,0,0,0,0,0,0,0,0,0,0,0,0,0,0,
0,0,0,0,0,0,0,0,0,0,0,0,0,0,0,0,0,0,0,0,0,2689,2690,2691,2692,2693,2694,2695,2696,0,0,0,0,0,0,0,0,0,0,0,0,0,0,0,0,0,0,0,0,0,
0,0,0,0,0,0,0,0,0,0,0,0,0,0,0,0,0,0,0,0,0,2833,2834,2835,2836,2837,2838,2839,2840,0,0,0,0,0,0,0,0,0,0,0,0,0,0,0,0,0,0,0,0,0,
0,0,0,0,0,0,0,0,0,0,0,0,0,0,0,0,0,0,0,0,0,2977,2978,2979,2980,2981,2982,2983,2984,0,0,0,0,0,0,0,0,0,0,0,0,0,0,0,0,0,0,0,0,0,
0,0,0,0,0,0,0,0,0,0,0,0,0,0,0,0,0,0,0,0,0,3121,3122,3123,3124,3125,3126,3127,3128,0,0,0,0,0,0,0,0,0,0,0,0,0,0,0,0,0,0,0,0,0,
0,0,0,0,0,0,0,0,0,0,0,0,0,0,0,0,0,0,0,0,0,0,3266,3267,3268,3269,3270,3271,3272,0,0,0,0,0,0,0,0,0,0,0,0,0,0,0,0,0,0,0,0,0,
0,0,0,0,0,0,0,0,0,0,0,0,0,0,0,0,0,0,0,0,0,0,3410,3411,3412,3413,3414,3415,3416,0,0,0,0,0,0,0,0,0,0,0,0,0,0,0,0,0,0,0,0,0,
0,0,0,0,0,0,0,0,0,0,0,0,0,0,0,0,0,0,0,0,0,0,3554,3555,3556,3557,3558,3559,3560,0,0,0,0,0,0,0,0,0,0,0,0,0,0,0,0,0,0,0,0,0,
0,0,0,0,0,0,0,0,0,0,0,0,0,0,0,0,0,0,0,0,0,0,0,0,0,0,0,0,0,0,0,0,0,0,0,0,0,0,0,0,0,0,0,0,0,0,0,0,0,0,
0,0,0,0,0,0,0,0,0,0,0,0,0,0,0,0,0,0,0,0,0,0,0,0,0,0,0,0,0,0,0,0,0,0,0,0,0,0,0,0,0,0,0,0,0,0,0,0,0,0,
0,0,0,0,0,0,0,0,0,0,0,0,0,0,0,0,0,0,0,0,0,0,0,0,0,0,0,0,0,0,0,0,0,0,0,0,0,0,0,0,0,0,0,0,0,0,0,0,0,0,
0,0,0,0,0,0,0,0,0,0,0,0,0,0,0,0,0,0,0,0,0,0,0,0,0,0,0,0,0,0,0,0,0,0,0,0,0,0,0,0,0,0,0,0,0,0,0,0,0,0,
0,0,0,0,0,0,0,0,0,0,0,0,0,0,0,0,0,0,0,0,0,0,0,0,0,0,0,0,0,0,0,0,0,0,0,0,0,0,0,0,0,0,0,0,0,0,0,0,0,0,
0,0,0,0,0,0,0,0,0,0,0,0,0,0,0,0,0,0,0,0,0,0,0,0,0,0,0,0,0,0,0,0,0,0,0,0,0,0,0,0,0,0,0,0,0,0,0,0,0,0,
0,0,0,0,0,0,0,0,0,0,0,0,0,0,0,0,0,0,0,0,0,0,0,0,0,0,0,0,0,0,0,0,0,0,0,0,0,0,0,0,0,0,0,0,0,0,0,0,0,0,
0,0,0,0,0,0,0,0,0,0,0,0,0,0,0,0,0,0,0,0,0,0,0,0,0,0,0,0,0,0,0,0,0,0,0,0,0,0,0,0,0,0,0,0,0,0,0,0,0,0,
0,0,0,0,0,0,0,0,0,0,0,0,0,0,0,0,0,0,0,0,0,0,0,0,0,0,0,0,0,0,0,0,0,0,0,0,0,0,0,0,0,0,0,0,0,0,0,0,0,0
</data>
 </layer>
 <objectgroup id="5" name="Objects">
  <object id="1" name="Player" x="215" y="234">
   <point/>
  </object>
  <object id="6" name="collision" type="collision" x="0" y="-14" width="800" height="14"/>
  <object id="7" name="collision" type="collision" x="-20" y="-16" width="19" height="816"/>
  <object id="8" name="collision" type="collision" x="-20" y="800" width="821" height="15"/>
  <object id="9" name="collision" type="collision" x="801" y="-14" width="17" height="829"/>
  <object id="11" name="collision" type="collision" x="613" y="141" width="24" height="23"/>
  <object id="12" name="collision" type="collision" x="311" y="82" width="21" height="17"/>
  <object id="13" name="collision" type="collision" x="67" y="414" width="28" height="24"/>
  <object id="14" name="collision" type="collision" x="278" y="579" width="22" height="18"/>
  <object id="15" name="collision" type="collision" x="151" y="739" width="21" height="15"/>
  <object id="16" name="collision" type="collision" x="586" y="723" width="16" height="19"/>
  <object id="17" name="collision" type="collision" x="584" y="509" width="17" height="23"/>
  <object id="35" name="Silicium" type="silicium_1" x="271.89" y="304.933" width="66.0845" height="63.2523"/>
  <object id="37" name="Métal" type="metal_3" x="78.3573" y="560.774" width="66.0845" height="63.2523"/>
  <object id="41" name="Silicium" type="silicium_3" x="701.44" y="17.9372" width="66.0845" height="63.2523"/>
  <object id="40" name="Silicium" type="silicium_2" x="478.64" y="432.382" width="66.0845" height="63.2523"/>
  <object id="38" name="Métal" type="metal_2" x="671.23" y="591.928" width="66.0845" height="63.2523"/>
  <object id="39" name="Métal" type="metal_1" x="448.43" y="705.216" width="66.0845" height="63.2523"/>
  <object id="36" x="-90.6302" y="92.5183"/>
  <object id="42" name="Extracteur CO2" type="extract_co2_1" x="22.6575" y="144.442" width="50.0354" height="97.2386"/>
  <object id="44" name="Extracteur CO2" type="extract_co2_2" x="278.499" y="655.181" width="50.0354" height="97.2386"/>
  <object id="43" name="Panneaux solaires" type="solar_panel_2" x="21.7135" y="674.062" width="85.9098" height="87.798"/>
  <object id="45" name="Panneaux solaires" type="solar_panel_1" x="470.144" y="161.435" width="85.9098" height="87.798"/>
  <object id="46" name="Génerateur électrique" type="generator_1" x="688.223" y="387.066" width="63.2523" height="85.9098"/>
 </objectgroup>
 <layer id="8" name="Ressources" width="50" height="50">
  <data encoding="csv">
0,0,0,0,0,0,0,0,0,0,0,0,0,0,0,0,0,0,3467,3468,3469,3470,0,0,0,0,0,0,0,0,0,0,0,0,0,0,0,0,0,0,0,0,0,0,7091,7092,7093,7094,0,0,
0,0,5930,5931,5932,5933,5934,5935,5936,0,0,0,0,0,0,0,0,0,3611,3612,3613,3614,0,0,0,0,0,0,0,0,0,0,0,0,0,0,0,0,0,0,0,0,0,0,7235,7236,7237,7238,0,0,
0,0,6074,6075,6076,6077,6078,6079,6080,0,0,0,0,0,0,0,0,0,3755,3756,3757,3758,0,0,0,0,0,0,0,0,0,0,0,0,0,0,0,0,0,0,0,0,0,0,7379,7380,7381,7382,0,0,
0,0,6218,6219,6220,6221,6222,6223,6224,0,0,0,0,0,0,0,0,0,3899,3900,3901,3902,0,0,0,0,0,0,0,0,0,0,0,0,0,0,0,0,0,0,0,0,0,0,7523,7524,7525,7526,0,0,
0,0,6362,6363,6364,6365,6366,6367,6368,0,0,0,0,0,0,0,0,0,4043,4044,4045,4046,0,0,0,0,0,0,0,0,0,0,0,0,0,0,0,3467,3468,3469,3470,0,0,0,7667,7668,7669,7670,0,0,
0,0,6506,6507,6508,6509,6510,6511,6512,0,0,0,0,0,0,0,0,0,4187,4188,4189,4190,0,0,0,0,0,0,0,0,0,0,0,0,0,0,0,3611,3612,3613,3614,0,0,0,7811,7812,7813,7814,0,0,
0,0,6650,6651,6652,6653,6654,6655,6656,0,0,0,0,0,0,0,0,0,4331,4332,4333,4334,0,0,0,0,0,0,0,0,0,0,0,0,0,0,0,3755,3756,3757,3758,0,0,0,0,0,0,0,0,0,
0,0,6794,6795,6796,6797,6798,6799,6800,0,0,0,0,0,0,0,0,0,0,0,0,0,0,0,0,0,0,0,0,0,0,0,0,0,0,0,0,3899,3900,3901,3902,0,0,0,0,0,0,0,0,0,
0,0,0,0,0,0,0,0,0,0,0,0,0,0,0,0,0,0,0,0,0,0,0,0,0,0,0,0,0,0,0,0,0,0,0,0,0,4043,4044,4045,4046,0,0,0,0,0,0,0,0,0,
0,0,0,0,0,0,0,0,0,0,0,0,0,0,0,0,0,0,0,0,0,0,0,0,0,0,0,0,0,0,0,0,0,0,0,0,0,4187,4188,4189,4190,0,0,0,0,0,0,0,0,0,
0,0,0,0,0,0,0,0,0,0,0,0,0,0,0,0,0,0,0,0,0,0,0,0,0,0,0,0,0,0,0,0,0,0,0,0,0,4331,4332,4333,4334,0,0,0,0,0,0,0,0,0,
0,0,0,0,0,0,0,0,0,0,0,0,0,0,0,0,0,0,0,0,0,0,0,0,0,0,0,0,0,0,0,0,0,0,0,0,0,0,0,0,0,0,0,0,0,0,0,0,0,0,
0,0,0,0,0,0,0,0,0,0,0,0,0,0,0,0,0,0,0,0,0,0,0,0,0,0,0,0,0,0,0,0,0,0,0,0,0,0,0,0,0,0,0,0,0,0,0,0,0,0,
0,0,0,0,0,0,0,0,0,0,0,0,0,0,0,0,0,0,0,0,0,0,0,0,0,0,0,0,0,0,0,0,0,0,0,0,0,0,0,0,0,0,0,0,0,0,0,0,0,0,
0,0,0,0,0,0,0,0,0,0,0,0,0,0,0,0,0,0,0,0,0,0,0,0,0,0,0,0,0,0,0,0,0,0,0,0,0,0,0,0,0,0,0,0,0,0,0,0,0,0,
0,0,0,0,0,0,0,0,0,0,0,0,0,0,0,0,0,0,0,0,0,0,0,0,0,0,0,0,0,0,0,0,0,0,0,0,0,0,0,0,0,0,0,0,0,0,0,0,0,0,
0,0,0,0,0,0,0,0,0,0,0,0,0,0,0,0,0,0,0,0,0,0,0,0,0,0,0,0,0,0,0,0,0,0,0,0,0,0,0,0,0,0,0,0,0,0,0,0,0,0,
0,0,0,0,0,0,0,0,0,0,0,0,0,0,0,0,0,0,0,0,0,0,0,0,0,0,0,0,0,0,0,0,0,0,0,0,0,0,0,0,0,0,0,0,0,0,0,0,0,0,
0,0,0,0,0,0,0,0,0,0,0,0,0,0,0,0,4786,4787,4788,4789,4790,4791,0,0,0,0,0,0,0,0,0,0,0,0,0,0,0,0,0,0,0,0,0,0,0,0,0,0,0,0,
0,0,0,0,0,0,0,0,0,0,0,0,0,0,0,0,4930,4931,4932,4933,4934,4935,0,0,0,0,0,0,0,0,0,0,0,0,0,0,0,0,0,0,0,0,0,0,0,0,0,0,0,0,
0,0,0,0,0,0,0,0,0,0,0,0,0,0,0,0,5074,5075,5076,5077,5078,5079,0,0,0,0,0,0,0,0,0,0,0,0,0,0,0,0,0,0,0,0,0,0,0,0,0,0,0,0,
0,0,0,3467,3468,3469,3470,0,0,0,0,0,0,0,0,0,5218,5219,5220,5221,5222,5223,0,0,0,0,0,0,0,0,0,0,0,0,0,0,0,0,0,0,0,0,0,0,0,0,0,0,0,0,
0,0,0,3611,3612,3613,3614,0,0,0,0,0,0,0,0,0,5362,5363,5364,5365,5366,5367,0,0,0,0,0,0,0,0,0,0,0,0,0,0,0,0,0,0,0,0,0,0,0,0,0,0,0,0,
0,0,0,3755,3756,3757,3758,0,0,0,0,0,0,0,0,0,5506,5507,5508,5509,5510,5511,0,0,0,0,0,0,0,0,0,0,0,0,0,0,0,0,0,0,0,0,0,0,0,0,0,0,0,0,
0,0,0,3899,3900,3901,3902,0,0,0,0,0,0,0,0,0,0,0,0,0,0,0,0,0,0,0,0,0,0,0,0,0,0,0,0,0,0,0,0,0,0,0,0,0,0,0,0,0,0,0,
0,0,0,4043,4044,4045,4046,0,0,0,0,0,0,0,0,0,0,0,0,0,0,0,0,0,0,0,0,0,0,0,0,0,0,0,0,0,0,0,0,0,0,0,0,0,0,0,0,0,0,0,
0,0,0,4187,4188,4189,4190,0,0,0,0,0,0,0,0,0,0,0,0,0,0,0,0,0,0,0,0,0,0,0,7091,7092,7093,7094,0,0,0,0,0,0,0,0,0,0,0,0,0,0,0,0,
0,0,0,4331,4332,4333,4334,0,0,0,0,0,0,0,0,0,0,0,0,0,0,0,0,0,0,0,0,0,0,0,7235,7236,7237,7238,0,3467,3468,3469,3470,0,0,0,0,0,0,0,0,0,0,0,
0,0,0,0,0,0,0,0,0,0,0,0,0,0,0,0,0,0,0,0,0,0,0,0,0,0,0,0,0,0,7379,7380,7381,7382,0,3611,3612,3613,3614,0,0,0,0,0,0,0,0,0,0,0,
0,0,0,0,0,0,0,0,0,0,0,0,0,0,0,0,0,0,0,0,0,0,0,0,0,0,0,0,0,0,7523,7524,7525,7526,0,3755,3756,3757,3758,0,0,0,0,0,0,0,0,0,0,0,
0,0,0,0,0,0,0,0,0,0,0,0,0,0,0,0,0,0,0,0,0,0,0,0,0,0,0,0,0,0,7667,7668,7669,7670,0,3899,3900,3901,3902,0,0,0,0,0,0,0,0,0,0,0,
0,0,0,0,0,0,0,0,0,0,0,0,0,0,0,0,3467,3468,3469,3470,0,0,0,0,0,0,0,0,0,0,7811,7812,7813,7814,0,4043,4044,4045,4046,0,0,0,0,0,0,0,0,0,0,0,
0,0,0,0,0,0,0,0,0,0,0,0,0,0,0,0,3611,3612,3613,3614,0,0,0,0,0,0,0,0,0,0,0,0,0,0,0,4187,4188,4189,4190,0,0,0,0,0,0,0,0,0,0,0,
0,0,0,0,0,0,0,0,0,0,0,0,0,0,0,0,3755,3756,3757,3758,0,0,0,0,0,0,0,0,0,0,0,0,0,0,0,4331,4332,4333,4334,0,0,0,0,0,0,0,0,0,0,0,
0,0,0,0,4794,4795,4796,4797,4798,4799,0,0,0,0,0,0,3899,3900,3901,3902,0,0,0,0,0,0,0,0,0,0,0,0,0,0,0,0,0,0,0,0,0,0,0,0,0,0,0,0,0,0,
0,0,0,0,4938,4939,4940,4941,4942,4943,0,0,0,0,0,0,4043,4044,4045,4046,0,0,0,0,0,0,0,0,0,0,0,0,0,0,0,0,0,0,0,0,0,0,0,0,0,0,0,0,0,0,
0,0,0,0,5082,5083,5084,5085,5086,5087,0,0,0,0,0,0,4187,4188,4189,4190,0,0,0,0,0,0,0,0,0,0,0,0,0,0,0,0,0,0,0,0,0,5946,5947,5948,5949,5950,5951,0,0,0,
0,0,0,0,5226,5227,5228,5229,5230,5231,0,0,0,0,0,0,4331,4332,4333,4334,0,0,0,0,0,0,0,0,0,0,0,0,0,0,0,0,0,0,0,0,0,6090,6091,6092,6093,6094,6095,0,0,0,
0,0,0,0,5370,5371,5372,5373,5374,5375,0,0,0,0,0,0,0,0,0,0,0,0,0,0,0,0,0,0,0,0,0,0,0,0,0,0,0,0,0,0,0,6234,6235,6236,6237,6238,6239,0,0,0,
0,0,0,0,5514,5515,5516,5517,5518,5519,0,0,0,0,0,0,0,0,0,0,0,0,0,0,0,0,0,0,0,0,0,0,0,0,0,0,0,0,0,0,0,6378,6379,6380,6381,6382,6383,0,0,0,
0,0,0,0,0,0,0,0,0,0,0,0,0,0,0,0,0,0,0,0,0,0,0,0,0,0,0,0,0,0,0,0,0,0,0,3467,3468,3469,3470,0,0,6522,6523,6524,6525,6526,6527,0,0,0,
0,0,0,0,0,0,0,0,3467,3468,3469,3470,0,0,0,0,0,0,0,0,0,0,0,0,0,0,0,0,0,0,0,0,0,0,0,3611,3612,3613,3614,0,0,6666,6667,6668,6669,6670,6671,0,0,0,
0,0,0,0,0,0,0,0,3611,3612,3613,3614,0,0,0,0,0,0,0,0,0,0,0,0,0,0,0,0,0,0,0,0,0,0,0,3755,3756,3757,3758,0,0,0,0,0,0,0,0,0,0,0,
0,0,0,0,0,0,0,0,3755,3756,3757,3758,0,0,0,0,0,0,0,0,0,0,0,0,0,0,0,5946,5947,5948,5949,5950,5951,0,0,3899,3900,3901,3902,0,0,0,0,0,0,0,0,0,0,0,
0,0,0,0,0,0,0,0,3899,3900,3901,3902,0,0,0,0,0,0,0,0,0,0,0,0,0,0,0,6090,6091,6092,6093,6094,6095,0,0,4043,4044,4045,4046,0,0,0,0,0,0,0,0,0,0,0,
0,0,0,0,0,0,0,0,4043,4044,4045,4046,0,0,0,0,0,0,0,0,0,0,0,0,0,0,0,6234,6235,6236,6237,6238,6239,0,0,4187,4188,4189,4190,0,0,0,0,0,0,0,0,0,0,0,
0,0,0,0,0,0,0,0,4187,4188,4189,4190,0,0,0,0,0,0,0,0,0,0,0,0,0,0,0,6378,6379,6380,6381,6382,6383,0,0,4331,4332,4333,4334,0,0,0,0,0,0,0,0,0,0,0,
0,0,0,0,0,0,0,0,4331,4332,4333,4334,0,0,0,0,0,0,0,0,0,0,0,0,0,0,0,6522,6523,6524,6525,6526,6527,0,0,0,0,0,0,0,0,0,0,0,0,0,0,0,0,0,
0,0,0,0,0,0,0,0,0,0,0,0,0,0,0,0,0,0,0,0,0,0,0,0,0,0,0,6666,6667,6668,6669,6670,6671,0,0,0,0,0,0,0,0,0,0,0,0,0,0,0,0,0,
0,0,0,0,0,0,0,0,0,0,0,0,0,0,0,0,0,0,0,0,0,0,0,0,0,0,0,0,0,0,0,0,0,0,0,0,0,0,0,0,0,0,0,0,0,0,0,0,0,0
</data>
 </layer>
 <layer id="9" name="Batiments" width="50" height="50">
  <data encoding="csv">
0,0,0,0,0,0,0,0,0,0,0,0,0,0,0,0,0,0,0,0,0,0,0,0,0,0,0,0,0,0,0,0,0,0,0,0,0,0,0,0,0,0,0,0,0,0,0,0,0,0,
0,0,0,0,0,0,0,0,0,0,0,0,0,0,0,0,0,0,0,0,0,0,0,0,0,0,0,0,0,0,0,0,0,0,0,0,0,0,0,0,0,0,0,0,0,0,0,0,0,0,
0,0,0,0,0,0,0,0,0,0,0,0,0,0,0,0,0,0,0,0,0,0,0,0,0,0,0,0,0,0,0,0,0,0,0,0,0,0,0,0,0,0,0,0,0,0,0,0,0,0,
0,0,0,0,0,0,0,0,0,0,0,0,0,0,0,0,0,0,0,0,0,0,0,0,0,0,0,0,0,0,0,0,0,0,0,0,0,0,0,0,0,0,0,0,0,0,0,0,0,0,
0,0,0,0,0,0,0,0,0,0,0,0,0,0,0,0,0,0,0,0,0,0,0,0,0,0,0,0,0,0,0,0,0,0,0,0,0,0,0,0,0,0,0,0,0,0,0,0,0,0,
0,0,0,0,0,0,0,0,0,0,0,0,0,0,0,0,0,0,0,0,0,0,0,0,0,0,0,0,0,0,0,0,0,0,0,0,0,0,0,0,0,0,0,0,0,0,0,0,0,0,
0,0,0,0,0,0,0,0,0,0,0,0,0,0,0,0,0,0,0,0,0,0,0,0,0,0,0,0,0,0,0,0,0,0,0,0,0,0,0,0,0,0,0,0,0,0,0,0,0,0,
0,0,0,0,0,0,0,0,0,0,0,0,0,0,0,0,0,0,0,0,0,0,0,0,0,0,0,0,0,0,0,0,0,0,0,0,0,0,0,0,0,0,0,0,0,0,0,0,0,0,
6914,6915,6916,6917,6918,6919,0,0,0,0,0,0,0,0,0,0,0,0,0,0,0,0,0,0,0,0,0,0,0,0,0,0,0,0,0,0,0,0,0,0,0,0,0,0,0,0,0,0,0,0,
7058,7059,7060,7061,7062,7063,0,0,0,0,0,0,0,0,0,0,0,0,0,0,0,0,0,0,0,0,0,0,2441,2442,2443,2444,2445,2446,2447,2448,0,0,0,0,0,0,0,0,0,0,0,0,0,0,
7202,7203,7204,7205,7206,7207,0,0,0,0,0,0,0,0,0,0,0,0,0,0,0,0,0,0,0,0,0,0,2585,2586,2587,2588,2589,2590,2591,2592,0,0,0,0,0,0,0,0,0,0,0,0,0,0,
7346,7347,7348,7349,7350,7351,0,0,0,0,0,0,0,0,0,0,0,0,0,0,0,0,0,0,0,0,0,0,2729,2730,2731,2732,2733,2734,2735,2736,0,0,0,0,0,0,0,0,0,0,0,0,0,0,
7490,7491,7492,7493,7494,7495,0,0,0,0,0,0,0,0,0,0,0,0,0,0,0,0,0,0,0,0,0,0,2873,2874,2875,2876,2877,2878,2879,2880,0,0,0,0,0,0,0,0,0,0,0,0,0,0,
7634,7635,7636,7637,7638,7639,0,0,0,0,0,0,0,0,0,0,0,0,0,0,0,0,0,0,0,0,0,0,3017,3018,3019,3020,3021,3022,3023,3024,0,0,0,0,0,0,0,0,0,0,0,0,0,0,
7778,7779,7780,7781,7782,7783,0,0,0,0,0,0,0,0,0,0,0,0,0,0,0,0,0,0,0,0,0,0,3161,3162,3163,3164,3165,3166,3167,3168,0,0,0,0,0,0,0,0,0,0,0,0,0,0,
7922,7923,7924,7925,7926,7927,0,0,0,0,0,0,0,0,0,0,0,0,0,0,0,0,0,0,0,0,0,0,3305,3306,3307,3308,3309,3310,3311,3312,0,0,0,0,0,0,0,0,0,0,0,0,0,0,
0,0,0,0,0,0,0,0,0,0,0,0,0,0,0,0,0,0,0,0,0,0,0,0,0,0,0,0,3449,3450,3451,3452,3453,3454,3455,3456,0,0,0,0,0,0,0,0,0,0,0,0,0,0,
0,0,0,0,0,0,0,0,0,0,0,0,0,0,0,0,0,0,0,0,0,0,0,0,0,0,0,0,0,0,0,0,0,0,0,0,0,0,0,0,0,0,0,0,0,0,0,0,0,0,
0,0,0,0,0,0,0,0,0,0,0,0,0,0,0,0,0,0,0,0,0,0,0,0,0,0,0,0,0,0,0,0,0,0,0,0,0,0,0,0,0,0,0,0,0,0,0,0,0,0,
0,0,0,0,0,0,0,0,0,0,0,0,0,0,0,0,0,0,0,0,0,0,0,0,0,0,0,0,0,0,0,0,0,0,0,0,0,0,0,0,0,0,0,0,0,0,0,0,0,0,
0,0,0,0,0,0,0,0,0,0,0,0,0,0,0,0,0,0,0,0,0,0,0,0,0,0,0,0,0,0,0,0,0,0,0,0,0,0,0,0,0,0,0,0,0,0,0,0,0,0,
0,0,0,0,0,0,0,0,0,0,0,0,0,0,0,0,0,0,0,0,0,0,0,0,0,0,0,0,0,0,0,0,0,0,0,0,0,0,0,0,0,0,0,0,0,0,0,0,0,0,
0,0,0,0,0,0,0,0,0,0,0,0,0,0,0,0,0,0,0,0,0,0,0,0,0,0,0,0,0,0,0,0,0,0,0,0,0,0,0,0,0,0,0,0,0,0,0,0,0,0,
0,0,0,0,0,0,0,0,0,0,0,0,0,0,0,0,0,0,0,0,0,0,0,0,0,0,0,0,0,0,0,0,0,0,0,0,0,0,0,0,0,0,138,139,140,141,142,143,0,0,
0,0,0,0,0,0,0,0,0,0,0,0,0,0,0,0,0,0,0,0,0,0,0,0,0,0,0,0,0,0,0,0,0,0,0,0,0,0,0,0,0,0,282,283,284,285,286,287,0,0,
0,0,0,0,0,0,0,0,0,0,0,0,0,0,0,0,0,0,0,0,0,0,0,0,0,0,0,0,0,0,0,0,0,0,0,0,0,0,0,0,0,0,426,427,428,429,430,431,0,0,
0,0,0,0,0,0,0,0,0,0,0,0,0,0,0,0,0,0,0,0,0,0,0,0,0,0,0,0,0,0,0,0,0,0,0,0,0,0,0,0,0,0,570,571,572,573,574,575,0,0,
0,0,0,0,0,0,0,0,0,0,0,0,0,0,0,0,0,0,0,0,0,0,0,0,0,0,0,0,0,0,0,0,0,0,0,0,0,0,0,0,0,0,714,715,716,717,718,719,0,0,
0,0,0,0,0,0,0,0,0,0,0,0,0,0,0,0,0,0,0,0,0,0,0,0,0,0,0,0,0,0,0,0,0,0,0,0,0,0,0,0,0,0,858,859,860,861,862,863,0,0,
0,0,0,0,0,0,0,0,0,0,0,0,0,0,0,0,0,0,0,0,0,0,0,0,0,0,0,0,0,0,0,0,0,0,0,0,0,0,0,0,0,0,1002,1003,1004,1005,1006,1007,0,0,
0,0,0,0,0,0,0,0,0,0,0,0,0,0,0,0,0,0,0,0,0,0,0,0,0,0,0,0,0,0,0,0,0,0,0,0,0,0,0,0,0,0,0,0,0,0,0,0,0,0,
0,0,0,0,0,0,0,0,0,0,0,0,0,0,0,0,0,0,0,0,0,0,0,0,0,0,0,0,0,0,0,0,0,0,0,0,0,0,0,0,0,0,0,0,0,0,0,0,0,0,
0,0,0,0,0,0,0,0,0,0,0,0,0,0,0,0,0,0,0,0,0,0,0,0,0,0,0,0,0,0,0,0,0,0,0,0,0,0,0,0,0,0,0,0,0,0,0,0,0,0,
0,0,0,0,0,0,0,0,0,0,0,0,0,0,0,0,0,0,0,0,0,0,0,0,0,0,0,0,0,0,0,0,0,0,0,0,0,0,0,0,0,0,0,0,0,0,0,0,0,0,
0,0,0,0,0,0,0,0,0,0,0,0,0,0,0,0,0,0,0,0,0,0,0,0,0,0,0,0,0,0,0,0,0,0,0,0,0,0,0,0,0,0,0,0,0,0,0,0,0,0,
0,0,0,0,0,0,0,0,0,0,0,0,0,0,0,0,0,0,0,0,0,0,0,0,0,0,0,0,0,0,0,0,0,0,0,0,0,0,0,0,0,0,0,0,0,0,0,0,0,0,
0,0,0,0,0,0,0,0,0,0,0,0,0,0,0,0,0,0,0,0,0,0,0,0,0,0,0,0,0,0,0,0,0,0,0,0,0,0,0,0,0,0,0,0,0,0,0,0,0,0,
0,0,0,0,0,0,0,0,0,0,0,0,0,0,0,0,0,0,0,0,0,0,0,0,0,0,0,0,0,0,0,0,0,0,0,0,0,0,0,0,0,0,0,0,0,0,0,0,0,0,
0,0,0,0,0,0,0,0,0,0,0,0,0,0,0,0,0,0,0,0,0,0,0,0,0,0,0,0,0,0,0,0,0,0,0,0,0,0,0,0,0,0,0,0,0,0,0,0,0,0,
0,0,0,0,0,0,0,0,0,0,0,0,0,0,0,0,0,0,0,0,0,0,0,0,0,0,0,0,0,0,0,0,0,0,0,0,0,0,0,0,0,0,0,0,0,0,0,0,0,0,
0,0,0,0,0,0,0,0,0,0,0,0,0,0,0,0,6914,6915,6916,6917,6918,6919,0,0,0,0,0,0,0,0,0,0,0,0,0,0,0,0,0,0,0,0,0,0,0,0,0,0,0,0,
2441,2442,2443,2444,2445,2446,2447,2448,0,0,0,0,0,0,0,0,7058,7059,7060,7061,7062,7063,0,0,0,0,0,0,0,0,0,0,0,0,0,0,0,0,0,0,0,0,0,0,0,0,0,0,0,0,
2585,2586,2587,2588,2589,2590,2591,2592,0,0,0,0,0,0,0,0,7202,7203,7204,7205,7206,7207,0,0,0,0,0,0,0,0,0,0,0,0,0,0,0,0,0,0,0,0,0,0,0,0,0,0,0,0,
2729,2730,2731,2732,2733,2734,2735,2736,0,0,0,0,0,0,0,0,7346,7347,7348,7349,7350,7351,0,0,0,0,0,0,0,0,0,0,0,0,0,0,0,0,0,0,0,0,0,0,0,0,0,0,0,0,
2873,2874,2875,2876,2877,2878,2879,2880,0,0,0,0,0,0,0,0,7490,7491,7492,7493,7494,7495,0,0,0,0,0,0,0,0,0,0,0,0,0,0,0,0,0,0,0,0,0,0,0,0,0,0,0,0,
3017,3018,3019,3020,3021,3022,3023,3024,0,0,0,0,0,0,0,0,7634,7635,7636,7637,7638,7639,0,0,0,0,0,0,0,0,0,0,0,0,0,0,0,0,0,0,0,0,0,0,0,0,0,0,0,0,
3161,3162,3163,3164,3165,3166,3167,3168,0,0,0,0,0,0,0,0,7778,7779,7780,7781,7782,7783,0,0,0,0,0,0,0,0,0,0,0,0,0,0,0,0,0,0,0,0,0,0,0,0,0,0,0,0,
3305,3306,3307,3308,3309,3310,3311,3312,0,0,0,0,0,0,0,0,7922,7923,7924,7925,7926,7927,0,0,0,0,0,0,0,0,0,0,0,0,0,0,0,0,0,0,0,0,0,0,0,0,0,0,0,0,
3449,3450,3451,3452,3453,3454,3455,3456,0,0,0,0,0,0,0,0,0,0,0,0,0,0,0,0,0,0,0,0,0,0,0,0,0,0,0,0,0,0,0,0,0,0,0,0,0,0,0,0,0,0,
0,0,0,0,0,0,0,0,0,0,0,0,0,0,0,0,0,0,0,0,0,0,0,0,0,0,0,0,0,0,0,0,0,0,0,0,0,0,0,0,0,0,0,0,0,0,0,0,0,0
</data>
 </layer>
</map>
